img/icons/mail.svg

<svg width="20" height="20" viewBox="0 0 20 20" fill="none" xmlns="http://www.w3.org/2000/svg">
<g clip-path="url(#clip0_50_696)">
<path d="M0.417454 3.71703C3.16238 6.04168 7.97886 10.1314 9.39449 11.4066C9.58452 11.5788 9.78835 11.6663 9.99995 11.6663C10.2111 11.6663 10.4146 11.5796 10.6042 11.4083C12.021 10.1318 16.8375 6.04168 19.5825 3.71703C19.7534 3.57258 19.7794 3.31867 19.6411 3.14207C19.3212 2.73398 18.8444 2.5 18.3333 2.5H1.66663C1.15558 2.5 0.678665 2.73398 0.35886 3.14211C0.220501 3.31867 0.246556 3.57258 0.417454 3.71703Z" fill="white"/>
<path d="M19.7586 4.97683C19.6109 4.90808 19.4371 4.93207 19.3142 5.03707C17.5166 6.5609 15.148 8.57426 13.3617 10.1107C13.2677 10.1913 13.2148 10.3097 13.2169 10.4338C13.2189 10.5575 13.2763 10.6743 13.3731 10.7516C15.0329 12.0809 17.5341 13.9095 19.3403 15.2092C19.4123 15.2612 19.4978 15.2877 19.5836 15.2877C19.6487 15.2877 19.7138 15.2727 19.7737 15.2417C19.9128 15.1705 20.0003 15.0273 20.0003 14.871V5.35484C20.0003 5.1925 19.9059 5.0448 19.7586 4.97683Z" fill="white"/>
<path d="M0.66 15.2088C2.46664 13.9092 4.96828 12.0806 6.62762 10.7512C6.72445 10.6739 6.78184 10.5571 6.78387 10.4334C6.7859 10.3093 6.73301 10.1909 6.63902 10.1103C4.8527 8.5739 2.48371 6.56054 0.686055 5.03671C0.562344 4.93171 0.388203 4.90854 0.241719 4.97647C0.0944141 5.04444 0 5.19214 0 5.35448V14.8707C0 15.0269 0.0875 15.1702 0.226641 15.2414C0.286445 15.2723 0.351562 15.2874 0.41668 15.2874C0.502539 15.2874 0.587969 15.2609 0.66 15.2088Z" fill="white"/>
<path d="M19.4894 16.3427C17.745 15.0947 14.5317 12.768 12.6136 11.2112C12.4573 11.0839 12.2311 11.0879 12.0773 11.2206C11.7009 11.5489 11.386 11.8257 11.1626 12.0266C10.4765 12.6459 9.52435 12.6459 8.8367 12.0258C8.61412 11.8252 8.2992 11.5477 7.92279 11.2205C7.77022 11.0871 7.54357 11.083 7.38689 11.2112C5.47525 12.7627 2.2583 15.0922 0.511074 16.3426C0.413808 16.4126 0.351152 16.5204 0.338964 16.6396C0.327168 16.7589 0.366621 16.8773 0.448418 16.9652C0.763808 17.305 1.20814 17.4999 1.66674 17.4999H18.3334C18.792 17.4999 19.2359 17.305 19.5521 16.9652C19.6335 16.8777 19.6733 16.7593 19.6615 16.6401C19.6493 16.5209 19.5867 16.4127 19.4894 16.3427Z" fill="white"/>
</g>
<defs>
<clipPath id="clip0_50_696">
<rect width="20" height="20" fill="white"/>
</clipPath>
</defs>
</svg>

<svg width="20" height="20" fill="none" xmlns="http://www.w3.org/2000/svg"><g clip-path="url(#clip0_50_696)" fill="#fff"><path d="M.417 3.717c2.745 2.325 7.562 6.414 8.977 7.69.19.172.394.26.606.26.211 0 .415-.087.604-.259 1.417-1.276 6.233-5.366 8.979-7.691a.416.416 0 00.058-.575 1.655 1.655 0 00-1.308-.642H1.667c-.511 0-.988.234-1.308.642a.416.416 0 00.058.575zm19.342 1.26a.415.415 0 00-.445.06 1204.66 1204.66 0 00-5.952 5.074.416.416 0 00.011.64c1.66 1.33 4.161 3.159 5.967 4.458a.416.416 0 00.66-.338V5.355a.416.416 0 00-.241-.378zM.66 15.209c1.807-1.3 4.308-3.128 5.968-4.458a.416.416 0 00.011-.64A1106.241 1106.241 0 00.686 5.036.417.417 0 000 5.354v9.517a.417.417 0 00.66.338z"/><path d="M19.49 16.343c-1.745-1.248-4.958-3.575-6.876-5.132a.418.418 0 00-.537.01c-.376.328-.691.605-.914.806-.687.619-1.639.619-2.326-.001-.223-.2-.538-.478-.914-.806a.415.415 0 00-.536-.009C5.475 12.763 2.258 15.092.51 16.343a.418.418 0 00-.063.622c.316.34.76.535 1.219.535h16.666c.459 0 .903-.195 1.22-.535a.417.417 0 00-.064-.622z"/></g><defs><clipPath id="clip0_50_696"><path fill="#fff" d="M0 0h20v20H0z"/></clipPath></defs></svg>
